src/assets/blitz.svg

<svg xmlns="http://www.w3.org/2000/svg" width="3584" height="404" style="shape-rendering:geometricPrecision;text-rendering:geometricPrecision;image-rendering:optimizeQuality;fill-rule:evenodd;clip-rule:evenodd"><path fill="#0374f6" d="M48.5-.5h253q89.65 13.16 93 104 .34 35.219-19.5 64-12.718 14.722-30.5 22.5 41.928 16.932 54.5 60.5 8.942 37.983 0 76-17.853 54.353-72.5 71.5a277 277 0 0 1-27 5.5h-168a46758 46758 0 0 1 177.5-188q8.223-9.614 1-20-4.06-3.654-9.5-4.5a4145 4145 0 0 1-91-1.5 7099 7099 0 0 1 56.5-98 47.3 47.3 0 0 0 5.5-13.5q-.982-8.976-9-13a687 687 0 0 0-51-1.5l-46 .5q-6.066.41-10.5 4.5a27963 27963 0 0 0-107 197q-6.53 15.692 9.5 21.5l68 1q-20.244 49.725-40.5 99.5-4.067 11.814-15.5 16h-21q-39.66-10.159-49-50v-304q9.34-39.84 49-50" style="opacity:.99"/><path fill="#0374f6" d="M421.5-.5h90q26.43 7.69 31.5 35 1 167 0 334-5.07 27.31-31.5 35h-90z" style="opacity:.993"/><path fill="#0374f6" d="M594.5-.5h59q39.233 14.96 28.5 56-8.864 19.366-29.5 24.5-44.997.75-90 .5-.25-22.005.5-44 3.867-28.794 31.5-37" style="opacity:.982"/><path fill="#0374f6" d="M1347.5-.5h140c14.75 4.246 24.92 13.58 30.5 28a70850 70850 0 0 0 75 255 45960 45960 0 0 0 86.5-283h159c13.97 3.79 23.8 12.457 29.5 26 26.33 85.667 52.67 171.333 79 257 27.95-94.337 55.78-188.67 83.5-283h115c23.3 7.907 33.47 24.24 30.5 49a43948 43948 0 0 1-116.5 355h-224a30051 30051 0 0 0-65.5-230 30051 30051 0 0 0-65.5 230h-224c-44.33-134.667-88.67-269.333-133-404m1230 0h90c15.55 4.386 25.72 14.386 30.5 30q1.725 85.96 1.5 172 .225 86.04-1.5 172c-4.78 15.614-14.95 25.614-30.5 30h-90z" style="opacity:.993"/><path fill="#0374f6" d="M2725.5-.5h91c16.02 4.52 26.19 14.854 30.5 31a7496 7496 0 0 1 1.5 171q.225 85.536-1.5 171c-4.31 16.146-14.48 26.48-30.5 31h-91z" style="opacity:.985"/><path fill="#0374f6" d="M1005.5 403.5h-131q-32.927-2.34-64-14.5-44.398-20.52-47.5-69.5-.75-59.999-.5-120h-60v-101h60v-50a6453 6453 0 0 0 77-18.5q31.907-3.678 42.5 26.5a340 340 0 0 1 1.5 42q44.003-.25 88 .5 28.416 3.42 33.5 31.5c.5 22.998.67 45.998.5 69h-122q-.25 36.003.5 72 2.096 24.087 25.5 29.5a152.7 152.7 0 0 0 28.5 2.5 375 375 0 0 1 37.5-.5q25.103 6.1 29.5 31.5c.5 22.998.67 45.998.5 69" style="opacity:.99"/><path fill="#0374f6" d="M3583.5 127.5v72h-122c-.17 21.669 0 43.336.5 65-.42 21.233 9.74 33.733 30.5 37.5q11.955 1.392 24 1.5a384 384 0 0 1 37-.5q23.43 4.69 30 27.5v73h-131c-23.52-1.476-46.19-6.976-68-16.5-25.2-13.219-39.36-34.052-42.5-62.5-.5-41.665-.67-83.332-.5-125-11.39.383-22.72-.117-34-1.5-15.56-5.258-24.39-16.091-26.5-32.5-.5-22.331-.67-44.664-.5-67h61v-50l76-18.5c20.58-2.713 34.75 5.453 42.5 24.5a347 347 0 0 1 1.5 44c31.7-.447 63.37.053 95 1.5q20.94 6.681 27 27.5" style="opacity:.991"/><path fill="#0374f6" d="M2550.5 403.5h-89c-19.11-6.526-29.94-19.859-32.5-40q-41.34 28.79-91.5 36.5c-9.81 1.268-19.47 2.435-29 3.5h-51c-27.54-1.79-52.87-10.29-76-25.5-26.16-22.811-35.32-51.311-27.5-85.5 5.08-17.746 14.92-32.246 29.5-43.5 24.36-15.788 51.02-25.454 80-29 43.73-6.301 87.4-5.967 131 1 11.6 2.233 22.93 5.4 34 9.5 1.32-11.528-3.02-20.361-13-26.5-8.81-4.431-18.15-7.097-28-8q-70.965-4.534-141 8c-17.88 2.159-32.04-4.008-42.5-18.5a852 852 0 0 1-27.5-62c58.73-18.482 118.89-28.482 180.5-30a409 409 0 0 1 81.5 8.5c71.81 17.08 108.97 62.58 111.5 136.5.5 54.999.67 109.999.5 165m-228-122c35.97-1.723 71.64.611 107 7 .3 4.267-.04 8.434-1 12.5-46.74 19.05-95.07 25.383-145 19-11.25-5.082-14.08-13.248-8.5-24.5q6.75-7.255 16.5-9.5a286 286 0 0 1 31-4.5" style="opacity:.989"/><path fill="#0374f6" d="M3105.5 403.5h-60q-55.47-2.745-105-28.5c-35.99-21.782-57.16-53.615-63.5-95.5-3.83-28.001-2.17-55.668 5-83 14.87-43.208 44.04-72.041 87.5-86.5 35.42-11.304 71.76-16.804 109-16.5q48.9-.388 96 12.5 87.165 26.673 103.5 116.5c2.44 15.573 3.6 31.24 3.5 47-94.34-.333-188.67 0-283 1 8.61 19.095 23.27 30.595 44 34.5 27.39 4.72 54.72 4.387 82-1 12.47-3.903 23.81-9.903 34-18 39.33-.5 78.67-.667 118-.5-7.95 46.08-33.29 78.58-76 97.5-30.67 11.995-62.34 18.829-95 20.5m-43-224c19.55-.953 38.88.547 58 4.5 14.14 3.488 24.81 11.488 32 24-49.34.833-98.67.667-148-.5q13.395-21.723 39-25.5c6.5-.691 12.83-1.524 19-2.5" style="opacity:.987"/><path fill="#0374f6" d="M653.5 403.5h-91v-303q45.502-.25 91 .5 21.65 6.434 29.5 27.5a7444 7444 0 0 1 1 243q-6.363 24.61-30.5 32m718 0h-347c-.17-27.669 0-55.335.5-83 2.15-12.142 8.32-21.642 18.5-28.5l150-87-133-1q-26.445-4.083-34.5-29.5a885 885 0 0 1-1.5-71q154.5-.25 309 .5 30.75 4.256 37.5 34.5 1.005 24.5 0 49c-3.29 15.957-12.45 27.124-27.5 33.5a14845 14845 0 0 0-141 82l136 1c18.39 4.392 29.23 15.892 32.5 34.5.5 21.664.67 43.331.5 65" style="opacity:.991"/></svg>

<?xml version="1.0" encoding="UTF-8"?>
<!DOCTYPE svg PUBLIC "-//W3C//DTD SVG 1.1//EN" "http://www.w3.org/Graphics/SVG/1.1/DTD/svg11.dtd">
<svg xmlns="http://www.w3.org/2000/svg" version="1.1" width="3584px" height="404px" style="shape-rendering:geometricPrecision; text-rendering:geometricPrecision; image-rendering:optimizeQuality; fill-rule:evenodd; clip-rule:evenodd" xmlns:xlink="http://www.w3.org/1999/xlink">
<g><path style="opacity:0.99" fill="#0374f6" d="M 48.5,-0.5 C 132.833,-0.5 217.167,-0.5 301.5,-0.5C 361.267,8.27396 392.267,42.9406 394.5,103.5C 394.727,126.979 388.227,148.313 375,167.5C 366.521,177.315 356.355,184.815 344.5,190C 372.452,201.288 390.618,221.455 399,250.5C 404.961,275.822 404.961,301.155 399,326.5C 387.098,362.735 362.931,386.569 326.5,398C 317.451,400.309 308.451,402.143 299.5,403.5C 243.5,403.5 187.5,403.5 131.5,403.5C 190.462,340.703 249.629,278.036 309,215.5C 314.482,209.091 314.815,202.424 310,195.5C 307.293,193.064 304.127,191.564 300.5,191C 270.161,190.833 239.828,190.333 209.5,189.5C 228.081,156.67 246.914,124.003 266,91.5C 268.542,87.2543 270.376,82.7543 271.5,78C 270.845,72.0161 267.845,67.6828 262.5,65C 245.542,63.8696 228.542,63.3696 211.5,63.5C 196.167,63.6667 180.833,63.8333 165.5,64C 161.456,64.2728 157.956,65.7728 155,68.5C 119.079,134.007 83.4125,199.674 48,265.5C 43.6464,275.961 46.8131,283.128 57.5,287C 80.1667,287.333 102.833,287.667 125.5,288C 112.004,321.15 98.5045,354.316 85,387.5C 82.2888,395.376 77.1221,400.709 69.5,403.5C 62.5,403.5 55.5,403.5 48.5,403.5C 22.0605,396.727 5.72719,380.061 -0.5,353.5C -0.5,252.167 -0.5,150.833 -0.5,49.5C 5.72719,22.9394 22.0605,6.27272 48.5,-0.5 Z"/></g>
<g><path style="opacity:0.993" fill="#0374f6" d="M 421.5,-0.5 C 451.5,-0.5 481.5,-0.5 511.5,-0.5C 529.12,4.62616 539.62,16.2928 543,34.5C 543.667,145.833 543.667,257.167 543,368.5C 539.62,386.707 529.12,398.374 511.5,403.5C 481.5,403.5 451.5,403.5 421.5,403.5C 421.5,268.833 421.5,134.167 421.5,-0.5 Z"/></g>
<g><path style="opacity:0.982" fill="#0374f6" d="M 594.5,-0.5 C 614.167,-0.5 633.833,-0.5 653.5,-0.5C 679.655,9.47343 689.155,28.1401 682,55.5C 676.091,68.4109 666.257,76.5776 652.5,80C 622.502,80.5 592.502,80.6666 562.5,80.5C 562.333,65.8295 562.5,51.1629 563,36.5C 565.578,17.3043 576.078,4.97097 594.5,-0.5 Z"/></g>
<g><path style="opacity:0.993" fill="#0374f6" d="M 1347.5,-0.5 C 1394.17,-0.5 1440.83,-0.5 1487.5,-0.5C 1502.25,3.74648 1512.42,13.0798 1518,27.5C 1542.84,112.545 1567.84,197.545 1593,282.5C 1622.14,188.239 1650.98,93.9054 1679.5,-0.5C 1732.5,-0.5 1785.5,-0.5 1838.5,-0.5C 1852.47,3.29018 1862.3,11.9568 1868,25.5C 1894.33,111.167 1920.67,196.833 1947,282.5C 1974.95,188.163 2002.78,93.8297 2030.5,-0.5C 2068.83,-0.5 2107.17,-0.5 2145.5,-0.5C 2168.8,7.40657 2178.97,23.7399 2176,48.5C 2137.66,167.023 2098.83,285.356 2059.5,403.5C 1984.83,403.5 1910.17,403.5 1835.5,403.5C 1813.98,326.764 1792.14,250.097 1770,173.5C 1747.86,250.097 1726.02,326.764 1704.5,403.5C 1629.83,403.5 1555.17,403.5 1480.5,403.5C 1436.17,268.833 1391.83,134.167 1347.5,-0.5 Z"/></g>
<g><path style="opacity:0.993" fill="#0374f6" d="M 2577.5,-0.5 C 2607.5,-0.5 2637.5,-0.5 2667.5,-0.5C 2683.05,3.88618 2693.22,13.8862 2698,29.5C 2699.15,86.8068 2699.65,144.14 2699.5,201.5C 2699.65,258.86 2699.15,316.193 2698,373.5C 2693.22,389.114 2683.05,399.114 2667.5,403.5C 2637.5,403.5 2607.5,403.5 2577.5,403.5C 2577.5,268.833 2577.5,134.167 2577.5,-0.5 Z"/></g>
<g><path style="opacity:0.985" fill="#0374f6" d="M 2725.5,-0.5 C 2755.83,-0.5 2786.17,-0.5 2816.5,-0.5C 2832.52,4.02023 2842.69,14.3536 2847,30.5C 2848.15,87.4764 2848.65,144.476 2848.5,201.5C 2848.65,258.524 2848.15,315.524 2847,372.5C 2842.69,388.646 2832.52,398.98 2816.5,403.5C 2786.17,403.5 2755.83,403.5 2725.5,403.5C 2725.5,268.833 2725.5,134.167 2725.5,-0.5 Z"/></g>
<g><path style="opacity:0.99" fill="#0374f6" d="M 1005.5,403.5 C 961.833,403.5 918.167,403.5 874.5,403.5C 852.549,401.94 831.215,397.107 810.5,389C 780.902,375.32 765.068,352.154 763,319.5C 762.5,279.501 762.333,239.501 762.5,199.5C 742.5,199.5 722.5,199.5 702.5,199.5C 702.5,165.833 702.5,132.167 702.5,98.5C 722.5,98.5 742.5,98.5 762.5,98.5C 762.5,81.8333 762.5,65.1667 762.5,48.5C 788.188,42.4949 813.854,36.3282 839.5,30C 860.771,27.5477 874.938,36.381 882,56.5C 883.366,70.4594 883.866,84.4594 883.5,98.5C 912.835,98.3334 942.169,98.5 971.5,99C 990.445,101.28 1001.61,111.78 1005,130.5C 1005.5,153.498 1005.67,176.498 1005.5,199.5C 964.833,199.5 924.167,199.5 883.5,199.5C 883.333,223.502 883.5,247.502 884,271.5C 885.397,287.558 893.897,297.391 909.5,301C 918.917,302.725 928.417,303.558 938,303.5C 950.497,302.708 962.997,302.542 975.5,303C 992.234,307.067 1002.07,317.567 1005,334.5C 1005.5,357.498 1005.67,380.498 1005.5,403.5 Z"/></g>
<g><path style="opacity:0.991" fill="#0374f6" d="M 3583.5,127.5 C 3583.5,151.5 3583.5,175.5 3583.5,199.5C 3542.83,199.5 3502.17,199.5 3461.5,199.5C 3461.33,221.169 3461.5,242.836 3462,264.5C 3461.58,285.733 3471.74,298.233 3492.5,302C 3500.47,302.928 3508.47,303.428 3516.5,303.5C 3528.83,302.739 3541.16,302.572 3553.5,303C 3569.12,306.127 3579.12,315.293 3583.5,330.5C 3583.5,354.833 3583.5,379.167 3583.5,403.5C 3539.83,403.5 3496.17,403.5 3452.5,403.5C 3428.98,402.024 3406.31,396.524 3384.5,387C 3359.3,373.781 3345.14,352.948 3342,324.5C 3341.5,282.835 3341.33,241.168 3341.5,199.5C 3330.11,199.883 3318.78,199.383 3307.5,198C 3291.94,192.742 3283.11,181.909 3281,165.5C 3280.5,143.169 3280.33,120.836 3280.5,98.5C 3300.83,98.5 3321.17,98.5 3341.5,98.5C 3341.5,81.8333 3341.5,65.1667 3341.5,48.5C 3366.82,42.337 3392.15,36.1703 3417.5,30C 3438.08,27.2865 3452.25,35.4532 3460,54.5C 3461.43,69.108 3461.93,83.7747 3461.5,98.5C 3493.2,98.0533 3524.87,98.5533 3556.5,100C 3570.46,104.454 3579.46,113.621 3583.5,127.5 Z"/></g>
<g><path style="opacity:0.989" fill="#0374f6" d="M 2550.5,403.5 C 2520.83,403.5 2491.17,403.5 2461.5,403.5C 2442.39,396.974 2431.56,383.641 2429,363.5C 2401.44,382.693 2370.94,394.86 2337.5,400C 2327.69,401.268 2318.03,402.435 2308.5,403.5C 2291.5,403.5 2274.5,403.5 2257.5,403.5C 2229.96,401.71 2204.63,393.21 2181.5,378C 2155.34,355.189 2146.18,326.689 2154,292.5C 2159.08,274.754 2168.92,260.254 2183.5,249C 2207.86,233.212 2234.52,223.546 2263.5,220C 2307.23,213.699 2350.9,214.033 2394.5,221C 2406.1,223.233 2417.43,226.4 2428.5,230.5C 2429.82,218.972 2425.48,210.139 2415.5,204C 2406.69,199.569 2397.35,196.903 2387.5,196C 2340.19,192.978 2293.19,195.644 2246.5,204C 2228.62,206.159 2214.46,199.992 2204,185.5C 2193.98,165.138 2184.82,144.472 2176.5,123.5C 2235.23,105.018 2295.39,95.0175 2357,93.5C 2384.46,93.6076 2411.63,96.4409 2438.5,102C 2510.31,119.08 2547.47,164.58 2550,238.5C 2550.5,293.499 2550.67,348.499 2550.5,403.5 Z M 2322.5,281.5 C 2358.47,279.777 2394.14,282.111 2429.5,288.5C 2429.8,292.767 2429.46,296.934 2428.5,301C 2381.76,320.05 2333.43,326.383 2283.5,320C 2272.25,314.918 2269.42,306.752 2275,295.5C 2279.5,290.663 2285,287.497 2291.5,286C 2301.9,283.912 2312.23,282.412 2322.5,281.5 Z"/></g>
<g><path style="opacity:0.987" fill="#0374f6" d="M 3105.5,403.5 C 3085.5,403.5 3065.5,403.5 3045.5,403.5C 3008.52,401.67 2973.52,392.17 2940.5,375C 2904.51,353.218 2883.34,321.385 2877,279.5C 2873.17,251.499 2874.83,223.832 2882,196.5C 2896.87,153.292 2926.04,124.459 2969.5,110C 3004.92,98.6963 3041.26,93.1963 3078.5,93.5C 3111.1,93.2413 3143.1,97.408 3174.5,106C 3232.61,123.782 3267.11,162.615 3278,222.5C 3280.44,238.073 3281.6,253.74 3281.5,269.5C 3187.16,269.167 3092.83,269.5 2998.5,270.5C 3007.11,289.595 3021.77,301.095 3042.5,305C 3069.89,309.72 3097.22,309.387 3124.5,304C 3136.97,300.097 3148.31,294.097 3158.5,286C 3197.83,285.5 3237.17,285.333 3276.5,285.5C 3268.55,331.58 3243.21,364.08 3200.5,383C 3169.83,394.995 3138.16,401.829 3105.5,403.5 Z M 3062.5,179.5 C 3082.05,178.547 3101.38,180.047 3120.5,184C 3134.64,187.488 3145.31,195.488 3152.5,208C 3103.16,208.833 3053.83,208.667 3004.5,207.5C 3013.43,193.018 3026.43,184.518 3043.5,182C 3050,181.309 3056.33,180.476 3062.5,179.5 Z"/></g>
<g><path style="opacity:0.991" fill="#0374f6" d="M 653.5,403.5 C 623.167,403.5 592.833,403.5 562.5,403.5C 562.5,302.5 562.5,201.5 562.5,100.5C 592.835,100.333 623.168,100.5 653.5,101C 667.933,105.289 677.766,114.456 683,128.5C 684.655,209.456 684.989,290.456 684,371.5C 679.758,387.907 669.591,398.574 653.5,403.5 Z"/></g>
<g><path style="opacity:0.991" fill="#0374f6" d="M 1371.5,403.5 C 1255.83,403.5 1140.17,403.5 1024.5,403.5C 1024.33,375.831 1024.5,348.165 1025,320.5C 1027.15,308.358 1033.32,298.858 1043.5,292C 1093.5,263 1143.5,234 1193.5,205C 1149.17,204.667 1104.83,204.333 1060.5,204C 1042.87,201.278 1031.37,191.445 1026,174.5C 1024.55,150.877 1024.05,127.211 1024.5,103.5C 1127.5,103.333 1230.5,103.5 1333.5,104C 1354,106.837 1366.5,118.337 1371,138.5C 1371.67,154.833 1371.67,171.167 1371,187.5C 1367.71,203.457 1358.55,214.624 1343.5,221C 1296.34,248.081 1249.34,275.414 1202.5,303C 1247.83,303.333 1293.17,303.667 1338.5,304C 1356.89,308.392 1367.73,319.892 1371,338.5C 1371.5,360.164 1371.67,381.831 1371.5,403.5 Z"/></g>
</svg>
